X: 8
T: Miserimini mei
N: Derived from Mou2064-Miserimini_mei.krn
C: Mouton
%%abc-version 2.0
%%abcx-abcm2ps-target-version 5.9.1 (29 Sep 2008)
%%abc-creator hum2abc beta
%%abcx-conversion-date 2019/02/17 07:22:04
%%abc-edited-by Jesse Rodin
%%abc-edited-by Joel Chapman 2012/1/21
%%abcx-initial-encoding-date 2012/01/21/
%%humdrum-veritas 177409102
%%humdrum-veritas-data 239136111
%%linebreak <none>
%%barnumbers 0
L: 1/4
M: 2/1
Q: 1/2=120
%%staves [1 2 3 4]
V: 1 clef=treble
V: 2 clef=treble-8
V: 3 clef=treble-8
V: 4 clef=bass
K: C
[V:1] E6E2 | 
[V:2] z8 | 
[V:3] z8 | 
[V:4] z8 | 
[V:1] G4G4 | 
[V:2] z8 | 
[V:3] z8 | 
[V:4] z8 | 
[V:1] A4A4 | 
[V:2] A6A2 | 
[V:3] z8 | 
[V:4] z8 | 
[V:1] G2CDEFGA | 
[V:2] c4c4 | 
[V:3] z8 | 
[V:4] z8 | 
[V:1] B2c3B/A/B2 | 
[V:2] d4d4 | 
[V:3] z8 | 
[V:4] z8 | 
[V:1] c4z2c2- | 
[V:2] c2FGABcd | 
[V:3] A6A2 | 
[V:4] z8 | 
[V:1] c2BAG4 | 
[V:2] e2f3e/d/e2 | 
[V:3] c4c4 | 
[V:4] z8 | 
[V:1] F2A4GF | 
[V:2] f4F2G2 | 
[V:3] d4d4 | 
[V:4] z8 | 
[V:1] E4z2E2 | 
[V:2] A3G/F/E2c2- | 
[V:3] c3BA4 | 
[V:4] A,,6A,,2 | 
[V:1] E3FG2A2- | 
[V:2] c2c2c2c2 | 
[V:3] G4z2E2 | 
[V:4] C,4C,4 | 
[V:1] AGF4ED | 
[V:2] A4A3B | 
[V:3] F3GA2F2 | 
[V:4] D,4D,4 | 
[V:1] E4z2G2- | 
[V:2] c4z2e2- | 
[V:3] A4G4 | 
[V:4] C,4z2C,2- | 
[V:1] G2G2G2G2 | 
[V:2] e2e2e2e2 | 
[V:3] z2c4c2 | 
[V:4] C,2C,2C,2C,2 | 
[V:1] G4A4 | 
[V:2] e4f4 | 
[V:3] c2c2c4 | 
[V:4] C,4F,4 | 
[V:1] G4c3B | 
[V:2] e4z2e2- | 
[V:3] c4G4 | 
[V:4] C,8 | 
[V:1] A2G2FEG2 | 
[V:2] e2e2d2c2- | 
[V:3] c3BA2G2 | 
[V:4] z2C,2D,2E,2 | 
[V:1] F2E4D2 | 
[V:2] c2c2A3G | 
[V:3] A2E2F4 | 
[V:4] F,2C,2D,4 | 
[V:1] E4z2E2- | 
[V:2] ABc4BA | 
[V:3] E8- | 
[V:4] A,,8 | 
[V:1] E2E2E2E2 | 
[V:2] G4z2B2- | 
[V:3] E8 | 
[V:4] z2E,4E,2 | 
[V:1] G4D2G2- | 
[V:2] B2B2B2B2 | 
[V:3] z8 | 
[V:4] E,2E,2G,3F,/E,/ | 
[V:1] GFFE/D/E2D2- | 
[V:2] d4G4 | 
[V:3] z4z2B2- | 
[V:4] D,4C,2G,2- | 
[V:1] D2G3FGE | 
[V:2] z2G2G2G2 | 
[V:3] B2B2B2B2 | 
[V:4] G,F,E,D,E,4 | 
[V:1] F3GABc2- | 
[V:2] A4A4 | 
[V:3] d4c2e2- | 
[V:4] D,4z2A,,2 | 
[V:1] cBA4^G2 | 
[V:2] E2e3dcB | 
[V:3] e2dcB4 | 
[V:4] C,3D,E,4 | 
[V:1] A8 | 
[V:2] c4z2c2 | 
[V:3] A8 | 
[V:4] A,,8 | 
[V:1] z2G2A2B2 | 
[V:2] d2e2f2d2 | 
[V:3] z8 | 
[V:4] z8 | 
[V:1] cBAGA2c2 | 
[V:2] e2f4e2 | 
[V:3] z8 | 
[V:4] z8 | 
[V:1] BAA2-A^G/^F/G2 | 
[V:2] d2c2B4 | 
[V:3] z4z2e2 | 
[V:4] z4E,4 | 
[V:1] A8 | 
[V:2] A8 | 
[V:3] c2d3Ac2- | 
[V:4] F,6E,2 | 
[V:1] z4B4 | 
[V:2] z8 | 
[V:3] cB/A/A3^G/^F/^G2 | 
[V:4] D,2C,2B,,4 | 
[V:1] c3BAGF2- | 
[V:2] e4f3e | 
[V:3] A8 | 
[V:4] A,,4z2D,2 | 
[V:1] FEA4^G2 | 
[V:2] d2c2B4 | 
[V:3] z4E4 | 
[V:4] D,2A,,2E,4 | 
[V:1] A8 | 
[V:2] A8 | 
[V:3] F4E2A2- | 
[V:4] z4A,,4 | 
[V:1] z8 | 
[V:2] z8 | 
[V:3] A2G2A3A | 
[V:4] _B,,4A,,2D,2- | 
[V:1] z8 | 
[V:2] z8 | 
[V:3] ABcABAc2- | 
[V:4] D,2C,2D,2A,,2 | 
[V:1] z8 | 
[V:2] z4D4 | 
[V:3] cBA4^G2 | 
[V:4] C,2D,2B,,4 | 
[V:1] z8 | 
[V:2] E4D4 | 
[V:3] A4F3E/D/ | 
[V:4] A,,4z2A,2- | 
[V:1] D4E4 | 
[V:2] z2d4c2 | 
[V:3] D4z4 | 
[V:4] A,2F,2G,2A,2 | 
[V:1] D4z2G2- | 
[V:2] d3dd4 | 
[V:3] A4F2G2 | 
[V:4] D,2D,4_B,,2 | 
[V:1] G2F2G2G2 | 
[V:2] c2A2B2G2 | 
[V:3] A4G2EF | 
[V:4] C,2D,2G,,2C,2- | 
[V:1] E8 | 
[V:2] c4B4 | 
[V:3] GEA4^G2 | 
[V:4] C,2A,,2E,4 | 
[V:1] E4E4- | 
[V:2] c4z2c2- | 
[V:3] A4z2G2- | 
[V:4] A,,4z2C,2- | 
[V:1] E2E2F4 | 
[V:2] c2c2A3B | 
[V:3] G2G2F3G | 
[V:4] C,2C,2D,4 | 
[V:1] E4z4 | 
[V:2] c4A4 | 
[V:3] A4E4 | 
[V:4] A,,8 | 
[V:1] E4G3G | 
[V:2] c6c2 | 
[V:3] z8 | 
[V:4] z8 | 
[V:1] A2c4B2 | 
[V:2] c4d4 | 
[V:3] z8 | 
[V:4] z8 | 
[V:1] c2A2c3B | 
[V:2] c4A2c2- | 
[V:3] z8 | 
[V:4] z8 | 
[V:1] A2G2F4 | 
[V:2] cde4d2 | 
[V:3] z8 | 
[V:4] z8 | 
[V:1] E8 | 
[V:2] e8- | 
[V:3] z4E4 | 
[V:4] A,,4C,4- | 
[V:1] z8 | 
[V:2] e4z4 | 
[V:3] G3GA2c2- | 
[V:4] C,2C,2C,4 | 
[V:1] z4G4 | 
[V:2] d4e4- | 
[V:3] c2B2c4 | 
[V:4] D,4C,4- | 
[V:1] c3BA2G2 | 
[V:2] e2e2e4 | 
[V:3] z2G2c3B | 
[V:4] C,4z2C,2 | 
[V:1] F2E4D2 | 
[V:2] d2c4BA | 
[V:3] A2G2A3B | 
[V:4] D,2E,2F,4 | 
[V:1] EFGABGc2 | 
[V:2] G2g4g2 | 
[V:3] c2B2e4 | 
[V:4] E,2E,4C,2 | 
[V:1] BAA4^G2 | 
[V:2] f4e4 | 
[V:3] d2c2B4 | 
[V:4] D,4E,4 | 
[V:1] A8 ||  
[V:2] e8 ||  
[V:3] A8 ||  
[V:4] A,,8 ||  
[V:1]  [K:C] [M:2/1]z8 | 
[V:2]  [K:C] [M:2/1]z8 | 
[V:3]  [K:C] [M:2/1]c8 | 
[V:4]  [K:C] [M:2/1]z4F,4- | 
[V:1] z8 | 
[V:2] z8 | 
[V:3] A4B4- | 
[V:4] F,4D,4 | 
[V:1] z8 | 
[V:2] e8 | 
[V:3] B2E2E4 | 
[V:4] E,6A,,2 | 
[V:1] c8 | 
[V:2] c3de2f2- | 
[V:3] e4c4 | 
[V:4] A,,4A,4 | 
[V:1] A4B4- | 
[V:2] fedcBABc | 
[V:3] d6B2 | 
[V:4] F,4G,4- | 
[V:1] B2G2G4- | 
[V:2] d2e4dc | 
[V:3] B2c4BA | 
[V:4] G,2C,2C,2C2- | 
[V:1] G4A3G | 
[V:2] d3ef2e2 | 
[V:3] G4F2C2 | 
[V:4] C2B,2C3B, | 
[V:1] F2E3D/C/D2 | 
[V:2] d2c3AA2 | 
[V:3] D2E2F3G | 
[V:4] A,2G,2A,2D,2 | 
[V:1] E8 | 
[V:2] c4B4 | 
[V:3] A4E2e2- | 
[V:4] A,,2A,4G,2 | 
[V:1] z4G4 | 
[V:2] z2A4G2 | 
[V:3] e2d2c2B2- | 
[V:4] F,4E,4 | 
[V:1] A4B4 | 
[V:2] F2E4D2 | 
[V:3] BAA4^G2 | 
[V:4] D,2C,2B,,4 | 
[V:1] c3BA2G2 | 
[V:2] E2e2e3d | 
[V:3] A2c4B2 | 
[V:4] A,,4z2E,2 | 
[V:1] F2E4D2 | 
[V:2] c2B2c2A2 | 
[V:3] A2G2F4 | 
[V:4] F,2G,2A,4 | 
[V:1] E2A4G2 | 
[V:2] c2A2e3d | 
[V:3] E2c4B2 | 
[V:4] A,,4z2E,2 | 
[V:1] F2E3D/C/D2 | 
[V:2] c2B2c2A2- | 
[V:3] A2G2F4 | 
[V:4] F,2G,2A,4 | 
[V:1] E4z2E2- | 
[V:2] ABc4BA | 
[V:3] E8 | 
[V:4] A,,4A,,3B,, | 
[V:1] E2E2G2G2 | 
[V:2] G2c2B2c2 | 
[V:3] z2A2G2E2 | 
[V:4] C,2A,,2E,2E,2 | 
[V:1] A4A4 | 
[V:2] d2A2c3d | 
[V:3] F4E2E2- | 
[V:4] D,4A,,2A,,B,, | 
[V:1] G2A3GGF/E/ | 
[V:2] e2c2B2c2 | 
[V:3] E2E2G2G2 | 
[V:4] C,2A,,2E,2E,2 | 
[V:1] F4E4- | 
[V:2] d2A2c3d | 
[V:3] A4A4 | 
[V:4] D,4A,,3B,, | 
[V:1] E4z2E2- | 
[V:2] e2dcB4 | 
[V:3] G2A3^G/^F/^G2 | 
[V:4] C,2A,,2E,2E,2 | 
[V:1] E2E2G2G2 | 
[V:2] A3GE2e2 | 
[V:3] A2c2B2c2- | 
[V:4] A,,2A,2G,2E,2 | 
[V:1] A4A4 | 
[V:2] c2f3cd2 | 
[V:3] cAd2c2A2 | 
[V:4] F,2D,2F,4 | 
[V:1] G4c3B | 
[V:2] e4z2e2- | 
[V:3] c4G4 | 
[V:4] C,8 | 
[V:1] A2G2FEG2 | 
[V:2] e2e2d2c2- | 
[V:3] c3BA2G2 | 
[V:4] z2C,2D,2E,2 | 
[V:1] F2E3D/C/D2 | 
[V:2] c2c2A3G | 
[V:3] A2E2F4 | 
[V:4] F,2C,2D,4 | 
[V:1] E4z2E2- | 
[V:2] ABc4BA | 
[V:3] E8- | 
[V:4] A,,8 | 
[V:1] E2E2E2E2 | 
[V:2] G4z2B2- | 
[V:3] E8 | 
[V:4] z2E,4E,2 | 
[V:1] G4D2G2- | 
[V:2] B2B2B2B2 | 
[V:3] z8 | 
[V:4] E,2E,2G,3F,/E,/ | 
[V:1] GFFE/D/E2D2- | 
[V:2] d4G4 | 
[V:3] z4z2B2- | 
[V:4] D,4C,2G,2- | 
[V:1] D2G3FGE | 
[V:2] z2G2G2G2 | 
[V:3] B2B2B2B2 | 
[V:4] G,F,E,D,E,4 | 
[V:1] F3GABc2- | 
[V:2] A4A4 | 
[V:3] d4c2e2- | 
[V:4] D,4z2A,,2 | 
[V:1] cBA3^G/^F/G2 | 
[V:2] E2e3dcB | 
[V:3] e2dcB4 | 
[V:4] C,3D,E,4 | 
[V:1] A2c3BcA | 
[V:2] c2ABcdec | 
[V:3] A4z2c2 | 
[V:4] A,,4A,4 | 
[V:1] B2c4BA | 
[V:2] d2e3ddc/d/ | 
[V:3] B2G2A3B | 
[V:4] G,2E,2F,4 | 
[V:1] GFEDC2c2 | 
[V:2] e2e4c2 | 
[V:3] c2B2z2A2 | 
[V:4] E,4A,4 | 
[V:1] B2c4BA | 
[V:2] d2e3ddc/d/ | 
[V:3] B2G2A3B | 
[V:4] G,2E,2F,4 | 
[V:1] GFGABGc2- | 
[V:2] e8- | 
[V:3] c2B2E2e2- | 
[V:4] E,4z2A,,2 | 
[V:1] cBA4^G2 | 
[V:2] e8- | 
[V:3] edc2B4 | 
[V:4] C,3D,E,4 | 
[V:1] A8 |]  
[V:2] e8 |]  
[V:3] A8 |]  
[V:4] A,,8 |]  



